X:1
T:Arabia (Wilson), 86.86.86
T:W. Wilson (1833-?)
T:Arabia (Wilson), 86.86.86
T:Public Domain
C:W. Wilson (1833-?)
Z:Public Domain
%%score ( 1 2 ) ( 3 4 )
L:1/8
M:4/4
K:E
V:1 treble 
V:2 treble 
V:3 bass 
V:4 bass 
V:1
 [B,B]2 | E2 [DF]2 [EG]2 (Ac) | [EB]2 ED [EG]3 [EB] | [Ec]2 [EB]2 (CD) [EG]2 | [EG]4 [DF]3 [EB] | %5
 [EB]2 [Ec]2 [EB]3 [EB] | (BG)(cB) [B,B]3 [B,B] | [CE]2 [DF]2 ([EG][GB])([FA][EG]) | %8
 [EG]4 [DF]3 [EB] | [EB]2 [Ec]2 [EB]3 [EB] | ([Ec][Fd])(EG) [Fd]3 [Dc] | %11
 (Be)([Ec][FA]) [EG]2 [DF]2 | E6 |] %13
V:2
 x2 | E2 x2 E2 x2 | x2 A2 x4 | x4 A2 x2 | x8 | x8 | E2 E2 x4 | x8 | x8 | x8 | x2 e2 x4 | E2 x6 | %12
 E6 |] %13
V:3
 [E,G,]2 | [G,,B,]2 [B,,B,]2 [E,B,]2 (C,A,,) | [B,,G,]2 [B,,F,]2 E,3 [E,G,] | %3
 A,2 [G,B,]2 (CB,) [E,B,]2 | [B,,B,]4- [B,,B,]3 [E,G,] | [E,G,]2 [A,,A,]2 [E,G,]3 [E,G,] | %6
 (G,B,)(A,G,) [D,F,]3 [D,F,] | [C,G,]2 [B,,B,]2 [E,B,]2 [A,,C]2 | [B,,B,]4- [B,,B,]3 [E,G,] | %9
 [E,G,]2 [A,,A,]2 [E,G,]3 [G,B,] | (A,F,)(G,E,) [B,,B,]3 [A,,F,] | [G,,B,]2 (A,C) [B,,B,]2 (B,A,) | %12
 [E,G,]6 |] %13
V:4
 x2 | x6 A,2 | x4 E,3 x | A,2 F,2 x4 | x8 | x8 | E,2 C,2 x4 | x8 | x8 | x8 | A,2 B,2 x4 | %11
 x2 A,,2 x B,,2 x | x6 |] %13

